icons/document-list.svg

<svg xmlns="http://www.w3.org/2000/svg" width="24" height="24" viewBox="0 0 24 24">
  <path d="M12,1 L12,8 C12,8.55228475 12.4477153,9 13,9 L20,9 L20,21 C20,22.1045695 19.1045695,23 18,23 L6,23 C4.8954305,23 4,22.1045695 4,21 L4,3 C4,1.8954305 4.8954305,1 6,1 L12,1 Z M16,17 L8,17 L7.88337887,17.0067277 C7.38604019,17.0644928 7,17.4871642 7,18 C7,18.5522847 7.44771525,19 8,19 L8,19 L16,19 L16.1166211,18.9932723 C16.6139598,18.9355072 17,18.5128358 17,18 C17,17.4477153 16.5522847,17 16,17 L16,17 Z M16,13 L8,13 L7.88337887,13.0067277 C7.38604019,13.0644928 7,13.4871642 7,14 C7,14.5522847 7.44771525,15 8,15 L8,15 L16,15 L16.1166211,14.9932723 C16.6139598,14.9355072 17,14.5128358 17,14 C17,13.4477153 16.5522847,13 16,13 L16,13 Z M14,1 L20,7 L15,7 C14.4871642,7 14.0644928,6.61395981 14.0067277,6.11662113 L14,6 L14,1 Z"/>
</svg>

<svg xmlns="http://www.w3.org/2000/svg" viewBox="0 0 24 24">
  <path d="M12 1v7a1 1 0 0 0 1 1h7v12a2 2 0 0 1-2 2H6a2 2 0 0 1-2-2V3c0-1.1.9-2 2-2h6zm4 16H7.88A1 1 0 0 0 8 19h8.12a1 1 0 0 0-.12-2zm0-4H7.88A1 1 0 0 0 8 15h8.12a1 1 0 0 0-.12-2zM14 1l6 6h-5a1 1 0 0 1-1-.88V1z"/>
</svg>
